X:373
T:The Queen's Delight
O:Bucknell
M:6/8
K:G
P:A
|: "G"d2 G dcB | "C"cBc "D"ABc  | "G"d2 G d2 c |"D" BcA "G"G3 |\
"G"d2 G dcB | "C"cBc "D"ABc  | "G"d2 G d2 c | "D"BcA "G"G3  :|\
P:B
   "C"cBc  cBc | "Am"ABc def  | "Em"gfg  eag  | "G"gfe "D"def |\
   "G"g2 g gfe | "C"dec "D"ABc  | "G"d2 G d2 c | "D"BcA "G"G3  ||\
